trunk/public/assets/images/icons/yellow/move_down/perle.svg

<svg width="16" height="16" xmlns="http://www.w3.org/2000/svg" viewBox="0 0 16 16" shape-rendering="geometricPrecision" fill="#ffad00"><defs><mask id="a"><rect fill="#fff" width="100%" height="100%"/><path fill="#000" d="M14.934-.397l-2.04 2.036L10.86-.398l-2.472 2.47 4.51 4.51 4.508-4.51z"/></mask></defs><path fill="#cb1800" d="M12.895 3.052l-2.037-2.035L9.8 2.073l3.097 3.096 3.093-3.097-1.057-1.056"/><path mask="url(#a)" d="M8.04 1.977c-3.315 0-6 2.687-6 6s2.686 6 6 6c3.313 0 6-2.687 6-6 0-3.314-2.687-6-6-6zm.373 6.606l-1.75-.33-.568 2.07-.708-1.678-1.685 1.377.748-2.044-1.816-.12L4.4 6.645 3.518 5.1l1.75.33.57-2.07.705 1.68L8.23 3.662l-.75 2.043 1.816.12L7.53 7.037l.883 1.546z"/></svg>

<?xml version="1.0"?><!DOCTYPE svg PUBLIC "-//W3C//DTD SVG 1.1//EN" "http://www.w3.org/Graphics/SVG/1.1/DTD/svg11.dtd"><svg width="16px" height="16px" xmlns="http://www.w3.org/2000/svg" viewBox="0 0 16 16" shape-rendering="geometricPrecision" fill="#ffad00"><defs><mask id="move_down-path"><rect fill="#fff" width="100%" height="100%"/><polygon points="14.934,-0.397 12.895,1.639 10.858,-0.397 8.386,2.073 12.897,6.583 17.404,2.073 " fill="#000"/></mask></defs><polygon points="12.895,3.052 10.858,1.017 9.8,2.073 12.897,5.169 15.99,2.073 14.933,1.017 " fill="#cb1800"/><path mask="url(#move_down-path)" d="M8.039,1.977c-3.314,0-6,2.687-6,5.999c0,3.314,2.687,6.001,6,6.001c3.314,0,6-2.687,6-6.001 C14.04,4.663,11.353,1.977,8.039,1.977z M8.413,8.583L6.662,8.254l-0.567,2.068L5.387,8.645l-1.685,1.377L4.45,7.978L2.634,7.859 l1.767-1.215L3.517,5.101L5.268,5.43L5.836,3.36l0.706,1.68l1.687-1.378l-0.75,2.043l1.817,0.12L7.529,7.037L8.413,8.583z"/></svg>
